Origami/64x64/apps/builder.svg

<svg width="64" height="64" version="1.1" viewBox="0 0 64 64" xmlns="http://www.w3.org/2000/svg">
 <path d="m36.992469 11.004652-15.996456 15.996455" style="fill:none;stroke-width:11.997342;stroke:#cbbb2e"/>
 <rect transform="scale(-1,1)" x="-25" y="23" width="15.996" height="33.992" ry="0" style="fill:#cbbb2e"/>
 <path d="m24.995127 52.995348c1.999557 0 1.999557 1.999558 1.999557 1.999558v3.999113h-19.99557v-3.999113c0-1.999558 1.999557-1.999558 1.999557-1.999558z" style="fill:#d6c84a"/>
 <path d="m28.994241 54.994906c1.999557 0 1.999557 1.999557 1.999557 1.999557v3.999114h-27.993798v-3.999114c0-1.999557 1.999557-1.999557 1.999557-1.999557z" style="fill:#4f4f4f"/>
 <path d="m36.992469 11.004652 7.998228 7.998228" style="fill:none;stroke-linecap:square;stroke-width:7.9982281;stroke:#cbbb2e"/>
 <rect transform="scale(-1,1)" x="-44.99" y="4" width="15.996" height="15.996" ry="7.998" style="opacity:.2"/>
 <rect transform="scale(-1,1)" x="-28.99" y="20" width="23.995" height="23.995" ry="11.997" style="opacity:.2"/>
 <rect transform="scale(-1,1)" x="-28.99" y="19" width="23.995" height="23.995" ry="11.997" style="fill:#d6c84a"/>
 <rect transform="scale(-1,1)" x="-25" y="23" width="15.996" height="15.996" ry="7.998" style="fill:#4f4f4f"/>
 <rect transform="scale(-1,1)" x="-23" y="25" width="11.997" height="11.997" ry="5.999" style="fill:#ffffff;opacity:.1"/>
 <rect transform="scale(-1,1)" x="-44.99" y="3.01" width="15.996" height="15.996" ry="7.998" style="fill:#d6c84a"/>
 <path d="m48.989811 32.999778-3.999114-1.999556v-7.998229l3.999114-3.999113h7.998228l1.999557 3.999113" style="fill:none;stroke-linecap:round;stroke-width:3.999114;stroke:#4f4f4f"/>
 <rect transform="scale(-1,1)" x="-40.99" y="7.01" width="7.998" height="7.998" ry="3.999" style="fill:#4f4f4f"/>
 <path d="m16.996094 19.001953c-6.646527 0-11.996094 5.351519-11.996094 11.998047 0 0.166329 0.0163424 0.328288 0.0253906 0.492188 0.2662959-6.407334 5.4956214-11.490235 11.970703-11.490235 6.477727 0 11.71032 5.087011 11.972656 11.498047 0.009324-0.166446 0.025391-0.331197 0.025391-0.5 0-6.646528-5.351519-11.998047-11.998047-11.998047z" style="fill:#ffffff;opacity:.2"/>
 <path d="m36.992188 3.0058594c-4.431019 0-7.998047 3.567028-7.998047 7.9980466 0 0.116378 0.02301 0.226359 0.033203 0.339844 0.335043-4.118378 3.757229-7.3378906 7.964844-7.3378906s7.629801 3.2195126 7.964843 7.3378906c0.010193-0.113485 0.033203-0.223466 0.033203-0.339844 0-4.4310186-3.567028-7.9980466-7.998046-7.9980466z" style="fill:#ffffff;opacity:.2"/>
 <path d="m5 54.994141s-2 4.43e-4 -2 2v1.005859c0-1.999557 2-2 2-2h23.994141c1.999557 0 2 2 2 2v-1.005859s-4.43e-4 -2-2-2h-23.994141z" style="fill:#ffffff;opacity:.1"/>
</svg>

<svg xmlns="http://www.w3.org/2000/svg" width="64" height="64" version="1.1" viewBox="0 0 64 64">
 <path style="fill:none;stroke:#cbbb2e;stroke-width:11.99734211" d="M 36.992469,11.004652 20.996013,27.001107"/>
 <rect style="fill:#cbbb2e" width="15.996" height="33.992" x="-25" y="23" ry="0" transform="scale(-1,1)"/>
 <path style="fill:#d6c84a" d="m 24.995127,52.995348 c 1.999557,0 1.999557,1.999558 1.999557,1.999558 l 0,3.999113 -19.9955698,0 0,-3.999113 c 0,-1.999558 1.999557,-1.999558 1.999557,-1.999558 z"/>
 <path style="fill:#4f4f4f" d="m 28.994241,54.994906 c 1.999557,0 1.999557,1.999557 1.999557,1.999557 l 0,3.999114 -27.9937978,0 0,-3.999114 c 0,-1.999557 1.999557,-1.999557 1.999557,-1.999557 z"/>
 <path style="fill:none;stroke:#cbbb2e;stroke-width:7.99822807;stroke-linecap:square" d="m 36.992469,11.004652 7.998228,7.998228"/>
 <rect style="opacity:0.2" width="15.996" height="15.996" x="-44.99" y="4" ry="7.998" transform="scale(-1,1)"/>
 <rect style="opacity:0.2" width="23.995" height="23.995" x="-28.99" y="20" ry="11.997" transform="scale(-1,1)"/>
 <rect style="fill:#d6c84a" width="23.995" height="23.995" x="-28.99" y="19" ry="11.997" transform="scale(-1,1)"/>
 <rect style="fill:#4f4f4f" width="15.996" height="15.996" x="-25" y="23" ry="7.998" transform="scale(-1,1)"/>
 <rect style="opacity:0.1;fill:#ffffff" width="11.997" height="11.997" x="-23" y="25" ry="5.999" transform="scale(-1,1)"/>
 <rect style="fill:#d6c84a" width="15.996" height="15.996" x="-44.99" y="3.01" ry="7.998" transform="scale(-1,1)"/>
 <path style="fill:none;stroke:#4f4f4f;stroke-width:3.99911404;stroke-linecap:round" d="m 48.989811,32.999778 -3.999114,-1.999556 0,-7.998229 3.999114,-3.999113 7.998228,0 1.999557,3.999113"/>
 <rect style="fill:#4f4f4f" width="7.998" height="7.998" x="-40.99" y="7.01" ry="3.999" transform="scale(-1,1)"/>
 <path style="opacity:0.2;fill:#ffffff" d="M 16.996094 19.001953 C 10.349567 19.001953 5 24.353472 5 31 C 5 31.166329 5.0163424 31.328288 5.0253906 31.492188 C 5.2916865 25.084854 10.521012 20.001953 16.996094 20.001953 C 23.473821 20.001953 28.706414 25.088964 28.96875 31.5 C 28.978074 31.333554 28.994141 31.168803 28.994141 31 C 28.994141 24.353472 23.642622 19.001953 16.996094 19.001953 z"/>
 <path style="opacity:0.2;fill:#ffffff" d="M 36.992188 3.0058594 C 32.561169 3.0058594 28.994141 6.5728874 28.994141 11.003906 C 28.994141 11.120284 29.017151 11.230265 29.027344 11.34375 C 29.362387 7.225372 32.784573 4.0058594 36.992188 4.0058594 C 41.199803 4.0058594 44.621989 7.225372 44.957031 11.34375 C 44.967224 11.230265 44.990234 11.120284 44.990234 11.003906 C 44.990234 6.5728874 41.423206 3.0058594 36.992188 3.0058594 z"/>
 <path style="opacity:0.1;fill:#ffffff" d="M 5 54.994141 C 5 54.994141 3 54.994584 3 56.994141 L 3 58 C 3 56.000443 5 56 5 56 L 28.994141 56 C 30.993698 56 30.994141 58 30.994141 58 L 30.994141 56.994141 C 30.994141 56.994141 30.993698 54.994141 28.994141 54.994141 L 5 54.994141 z"/>
</svg>
